www/assets/icons/view_day.svg

<svg xmlns="http://www.w3.org/2000/svg" width="24" height="24" viewBox="0 0 24 24" fill='currentColor'><path d="M2.5 21h19v-3h-19zm18-13h-17c-.55 0-1 .45-1 1v6c0 .55.45 1 1 1h17c.55 0 1-.45 1-1V9c0-.55-.45-1-1-1m-18-5v3h19V3z"/></svg>

<svg width="24" height="24" viewBox="0 0 24 24" xmlns="http://www.w3.org/2000/svg" fill='currentColor'><path d="M2.5 21H21.5V18H2.5V21ZM20.5 8H3.5C2.95 8 2.5 8.45 2.5 9V15C2.5 15.55 2.95 16 3.5 16H20.5C21.05 16 21.5 15.55 21.5 15V9C21.5 8.45 21.05 8 20.5 8ZM2.5 3V6H21.5V3H2.5Z"/></svg>
